X:1
T:The Glorious Gospel Train
T:The Glorious Gospel Train
T:James Edmond Thomas
T:Franklin Lycurgus Eiland, 1896
T:Public Domain Courtesy of the Cyber Hymnal™
T:Public Domain Courtesy of the Cyber Hymnal™
T:Public Domain Courtesy of the Cyber Hymnal™
C:James Edmond Thomas
Z:Public Domain
Z:Courtesy of the Cyber Hymnal™
%%score ( 1 2 ) ( 3 4 )
L:1/8
Q:1/4=100
M:4/4
K:Bb
V:1 treble 
V:2 treble 
V:3 bass 
V:4 bass 
V:1
 [DF]>[CE] | [B,D]>[DF] [FB]>[Fc] [Fd]<[Fd] [DB]>[FB] | [Gc]>[GB] [GB]>[EG] [DF]2 [DF]>[CE] | %3
w: 1.~Are you|at your sta- tion read- y, For the|near ap- proach- ing train? Are you|
w: 2.~Has your|ti- tle been re- cord- ed, That no|quest- ion can be made? Does your|
w: 3.~Are your|gar- ments nice- ly fit- ted, That ac-|cept- ed you may be, As a|
w: 4.~’Tis the|on- ly sig- nal, bro- ther, That will|make your pas- sage sure, That will|
 [B,D]>[DF] [FB]>[Fc] [Fd]<[Fd] [FB]>[FB] | [=Ed]>[Ec] [Ec]>[EB] [Fc]2 [Fd]>[F=e] | %5
w: ful- ly con- tem- plat- ing That a|pass you will ob- tain? Is there|
w: prep- a- ra- tion war- rant, That you|shall not be de- layed? When you|
w: guest on board for Heav- en, Trav- ’ling|for e- ter- ni- ty? Do you|
w: stop the might- y en- gine, And a|seat to you se- cure; That will|
 [Ff]>F [DB]>[Ec] [Fd]<[Fd] [FB]>[FB] | [Gc]>[GB] [GB]>[EG] [DF]2 [DF]>[B,E] | %7
w: some im- port- ant mat- ter, You have|left be- hind un- done, That will|
w: see the head- light gleam- ings, As a-|round the curves they climb, Have you|
w: hold the blood- stained ban- ner, Of Em-|man- uel in your hand, With your|
w: give you close con- nect- ion, And a|nev- er fail- ing hand, That will|
 [B,D]>[DF] [FB]>[Fc] [Fd]<[Fd] [FB]>[Gc] | [Fd]>[Fd] [Fd]>[Ec] !fermata![DB]2 || %9
w: keep you hes- i- tat- ing, Till too|late to make the run?|
w: an- y fears and doubt- ings, That you’ll|not get in on time?|
w: claims in- scribed up- on it, And a|ride for Heav’n de- mand?|
w: take you safe- ly o- ver, To the|glo- ry spir- it land.|
"^Refrain" ([DB]/[Ec]/)[Fd] x6 | [Bf]/ f4- [Bf]3/2 [Fd]>[Fc] | %11
w: ||
w: O * be|read- y for the glor-|
w: ||
w: ||
 [GB]>[Gc] [GB]>[EG] [DF]2 [DF]>[CE] | [B,D]>[DF] [FB]>[Fc] [Fd]<[Fd] [FB]>[FB] | %13
w: ||
w: * ious Gos- pel train, Quick- ly|make your prep- a- ra- tion, And your|
w: ||
w: ||
 [=Ed]<[Ec] [Ec]>[E=B] [Fc]2 ([EB]/[_Ec]/)[Fd] | [Bf]/ f4- [Bf]3/2 [Fd]>[Fc] | %15
w: ||
w: pass- port have in hand; O * be|read- y for the glor-|
w: ||
w: ||
 [GB]>[Gc] [GB]>[EG] [DF]2 [DF]>[CE] | [B,D]>[DF] [FB]>[Fc] [Fd]<[Fd] [FB]>[Gc] | %17
w: ||
w: * ious Gos- pel train, It will|take you safe- ly o- ver, To the|
w: ||
w: ||
 [Fd]>[Fd] [Fd]>[Ec] !fermata![DB]2 |] %18
w: |
w: glor- y spir- it land.|
w: |
w: |
V:2
 x2 | x8 | x8 | x8 | x8 | x3/2 F/ x6 | x8 | x8 | x6 || x8 | x/ B3/2 B3/2 B/ B/ x7/2 | x8 | x8 | %13
 x8 | x/ B3/2 B3/2 B/ B/ x7/2 | x8 | x8 | x6 |] %18
V:3
 [B,,B,]>[B,,B,] | [B,,F,]>[B,,B,] [D,B,]>[F,A,] B,<B, B,>[B,D] | %2
w: ~ ~|~ ~ ~ ~ ~ ~ ~ ~|
 [E,E]>[E,E] [E,E]>[E,B,] [B,,B,]2 [B,,B,]>[B,,B,] | %3
w: ~ ~ ~ ~ ~ ~ ~|
 [B,,F,]>[B,,B,] [D,B,]>[F,A,] B,<B, [D,B,]>[D,B,] | [C,B,]>[C,B,] [C,G,]>[C,G,] [F,A,]2 B,>[B,C] | %5
w: ~ ~ ~ ~ ~ ~ ~ ~|~ ~ ~ ~ ~ ~ ~|
 [B,D]>[B,D] B,>B, B,<B, [D,B,]>[D,B,] | [E,E]>[E,E] [E,E]>[E,B,] [B,,B,]2 [B,,B,]>[B,,B,] | %7
w: ~ ~ ~ ~ ~ ~ ~ ~|~ ~ ~ ~ ~ ~ ~|
 [B,,F,]>[B,,B,] [D,B,]>[F,A,] B,<B, [D,B,]>[E,B,] | %8
w: ~ ~ ~ ~ ~ ~ ~ ~|
 [F,B,]>[F,B,] [F,A,]>[F,A,] !fermata![B,,B,]2 || B,>B, [B,D]<[B,D] [B,D]>[B,D] [B,D]<[B,D] | %10
w: ~ ~ ~ ~ ~|O be read- y for the com- ing|
 [B,,B,]>[D,B,] [E,E]>[E,E] [E,E]>[E,B,] [B,,B,]2 | %11
w: of the glor- ious Gos- pel train,|
 [B,,B,]>[B,,B,] [B,,F,]>[B,,B,] [D,B,]>[F,A,] B,<B, | %12
w: ~ ~ ~ ~ ~ ~ ~ ~|
 [D,B,]>[D,B,] [C,B,]<[C,B,] [C,G,]>[C,G,] [F,A,]2 | B,>B, [B,D]<[B,D] [B,D]>[B,D] [B,D]<[B,D] | %14
w: ~ ~ ~ ~ ~ ~ ~|O be read- y for the com- ing|
 [B,,B,]>[D,B,] [E,E]>[E,E] [E,E]>[E,B,] [B,,B,]2 | %15
w: of the glor- ious Gos- pel train,|
 [B,,B,]>[B,,B,] [B,,F,]>[B,,B,] [D,B,]>[F,A,] B,<B, | %16
w: |
 [D,B,]>[E,B,] [F,B,]>[F,B,] [F,A,]>[F,A,] !fermata![B,,B,]2 | x6 |] %18
w: ||
V:4
 x2 | x4 B,<B, B,3/2 x/ | x8 | x4 B,<B, x2 | x6 B,3/2 x/ | x2 B,>B, B,<B, x2 | x8 | x4 B,<B, x2 | %8
 x6 || B,>B, x6 | x8 | x6 B,<B, | x8 | B,>B, x6 | x8 | x6 B,<B, | x8 | x6 |] %18

